X: 122
T: New Bo Peep (Pickadilla)
M:6/8
L:1/8
Q:160
S:Playford
O:Manuscript
A:English
K:G
e/2=f/2|g3 e3|ded B>cd|cdB A>GA/2B/2|G3 G2 e/2=f/2|g3 e3|ded B>cd| cdBA>GA/2B/2|G3 G2:|
|:B|c>de e>dc|d B2 G2 B|c>de e>dc|d B2 G2 e/2^f/2| g3 g2 f/2g/2|a3 a2 e/2f/2|g3 g2 f/2g/2|a3 a2 g/2a/2|b2 e e2 =f|g2 d Bcd| c2 B A3|g3 g3:|

